X:1
T:Cagayan de Oro, 76.76 D
T:Cagayan de Oro, 76.76 D
T:Aaron Clemens Kolb, 1902
T:Public Domain Courtesy of the Cyber Hymnal™
C:Aaron Clemens Kolb, 1902
Z:Public Domain
Z:Courtesy of the Cyber Hymnal™
%%score ( 1 2 ) ( 3 4 )
L:1/8
Q:1/4=95
M:6/8
K:Bb
V:1 treble 
V:2 treble 
V:3 bass 
V:4 bass 
V:1
 F[=EG][_EA] [DB]2 [FA] | [FA] [EG]4 [EG] | F2 F [DB]2 [DB] | [Fc]3- [Fc]2 F | %4
 [Ec]2 [Ec] [Ec]2 [Fc] | [Fd] [DB]4 [FA] | [=EG]2 [EG] [EA]2 [EB] | c6 F[=EG][_EA] [DB]2 [FA] | %8
 [FA] [EG]4 ([EG]/[FA]/) | [GB]2 [GB] [Gc]2 [G^c] | [^Fd]3- [Fd]2 [=Fd] | [Fd]2 [Fd] [Fe]2 [Fd] | %12
 [Gc] [EG]4 [EG] | [DF]2 [FB] [EB]2 [EA] | [DB]6 |] x6 |] %16
V:2
 F x5 | x6 | F2 F x3 | x5 F | x6 | x6 | x6 | (F3 E3) F x5 | x6 | x6 | x6 | x6 | x6 | x6 | x6 |] %15
 x6 |] %16
V:3
 F,F,F, [B,,F,]2 [D,B,] | [E,B,] [E,B,]4 [E,B,] | [D,B,]2 [D,B,] [G,B,]2 [G,B,] | %3
 [F,A,]3- [F,A,]2 [F,A,] | [F,A,]2 [F,A,] [F,A,]2 [F,A,] | B, [B,,B,]4 [B,,B,] | %6
 [C,B,]2 [C,B,] [C,C]2 [C,B,] | [F,A,]6 [F,A,] x5 | [F,B,][F,C] [B,,B,]2 [D,B,] x | %9
 [E,B,] [E,B,]4 [E,B,] | [E,B,]2 [E,B,] [E,G,]2 [E,G,] | [D,A,]3- [D,A,]2 [B,,B,] | %12
 [B,,B,]2 [B,,B,] [C,A,]2 [D,B,] | [E,B,] [E,B,]4 [E,B,] | [F,B,]2 [F,D] [F,D]2 F, |] [B,,F,]6 |] %16
V:4
 F,F,F, x3 | x6 | x6 | x6 | x6 | B, x5 | x6 | x12 | x6 | x6 | x6 | x6 | x6 | x6 | x5 F, |] x6 |] %16

